icons/art/art_phone-contactless_m_white.svg

<?xml version="1.0" encoding="UTF-8"?>
<svg width="96px" height="96px" viewBox="0 0 96 96" version="1.1" xmlns="http://www.w3.org/2000/svg" xmlns:xlink="http://www.w3.org/1999/xlink">
    <!-- Generator: Sketch 49 (51002) - http://www.bohemiancoding.com/sketch -->
    <title>art_phone_contactless__m__white</title>
    <desc>Created with Sketch.</desc>
    <defs></defs>
    <g id="set" stroke="none" stroke-width="1" fill="none" fill-rule="evenodd">
        <g id="NFC-applepay-assets" transform="translate(-384.000000, -189.000000)">
            <g id="art_phone_contactless__m" transform="translate(384.000000, 189.000000)">
                <g id="art">
                    <rect id="ph_20_" x="0" y="0" width="96" height="96"></rect>
                    <rect id="Rectangle-path" fill="#FFFFFF" opacity="0.2" x="21" y="18" width="54" height="52"></rect>
                    <rect id="Rectangle-path" fill="#FFFFFF" opacity="0.3" x="40" y="78" width="16" height="4"></rect>
                    <path d="M69,91 L27,91 C23.6,91 21,88.4 21,85 L21,11 C21,7.8 23.6,5 27,5 L69,5 C72.4,5 75,7.6 75,11 L75,85.2 C75,88.4 72.4,91 69,91 L69,91 Z" id="Shape"></path>
                    <path d="M21,85.2 C21,88.4477153 23.7522847,91.2 27,91.2 L69,91.2 C72.2477153,91.2 75,88.4477153 75,85.2 L75,11 C75,7.75228475 72.2477153,5 69,5 L27,5 C23.7522847,5 21,7.75228475 21,11 L21,85.2 Z M20,11 C20,7.2 23.2,4 27,4 L69,4 C72.8,4 76,7.2 76,11 L76,85.2 C76,89 72.8,92.2 69,92.2 L27,92.2 C23.2,92.2 20,89 20,85.2 L20,11 Z" id="Shape" fill="#FFFFFF" fill-rule="nonzero"></path>
                    <path d="M40.0436347,49.2131691 C39.7784435,49.1035159 39.4758385,48.74279 39.3857158,48.4291255 C39.285475,48.0787531 39.3675972,47.80062 39.7655016,47.1462307 C40.2772948,46.3045369 40.3965955,45.8529825 40.3965955,44.7529214 C40.3965955,43.6530956 40.2772948,43.2013058 39.7655016,42.359612 C39.5920802,42.0744197 39.4179529,41.7325183 39.3784213,41.6000404 C39.213471,41.0451861 39.6758496,40.3653836 40.29659,40.2489065 C40.8229721,40.1500775 41.184404,40.3851494 41.6681955,41.1404855 C43.0692145,43.3271951 43.0689792,46.2487691 41.6674896,48.4171248 C41.1731092,49.1821085 40.6217845,49.4524765 40.0436347,49.2131691 Z M44.0949185,51.2939905 C43.7603117,51.1431586 43.4722957,50.7892566 43.3939384,50.4325309 C43.3461711,50.2153424 43.4285286,49.9748584 43.8254918,49.1710491 C45.2836904,46.2174733 45.299456,43.3728447 43.8734945,40.4882139 C43.247342,39.2210848 43.2336942,38.9690708 43.7631354,38.4692783 C44.0245617,38.2229117 44.1356267,38.1791445 44.5027059,38.1791445 C45.1182695,38.1791445 45.4375813,38.4885735 45.9879648,39.6187539 C46.8341295,41.3569681 47.1805016,42.8650518 47.177678,44.7971591 C47.174619,46.7831518 46.8508363,48.1465216 45.9467861,49.9795646 C45.428875,51.0290346 45.1730961,51.3062265 44.6547143,51.3772892 C44.4965879,51.3989375 44.2448092,51.3612883 44.0949185,51.2939905 Z M48.4368067,53.5277616 C47.8951296,53.3701058 47.5045196,52.7055983 47.6612342,52.2076883 C47.6991187,52.087211 47.9541917,51.5321214 48.2276186,50.9739727 C49.3862712,48.6112533 49.8681803,46.0784067 49.6321672,43.5916804 C49.4380388,41.5482728 49.0716655,40.2597307 48.1492613,38.3742142 C47.5304034,37.1092028 47.501696,36.9131919 47.8614806,36.4037518 C48.2036173,35.9194896 49.0577824,35.840897 49.5062779,36.2526846 C49.817354,36.5378769 50.7844665,38.5575185 51.1576637,39.7011114 C52.3930264,43.4862628 52.2045453,47.5495473 50.6213986,51.2681067 C49.8102947,53.1726831 49.2408514,53.7616569 48.4368067,53.5277616 Z M52.6471582,55.7302368 C52.2939621,55.6281135 51.9360599,55.2078549 51.8607616,54.8068915 C51.8118177,54.5457005 51.8715857,54.3642786 52.2459594,53.6402384 C53.758514,50.7141936 54.4159623,48.0215735 54.4159623,44.7531567 C54.4159623,41.594393 53.8338123,39.1368448 52.388085,36.1910341 C52.0774795,35.5587637 51.823583,34.9716723 51.823583,34.8867264 C51.823583,34.5732972 52.0859505,34.1189191 52.3699663,33.9405562 C52.7593997,33.6963074 53.4119065,33.741957 53.7243945,34.0351497 C53.8444011,34.1480972 54.1564184,34.6601256 54.4176094,35.1730953 C55.4520198,37.2045022 56.1610004,39.4333318 56.5109021,41.7529901 C56.7276201,43.1888345 56.7706813,45.9096915 56.5977305,47.2238821 C56.2784186,49.6484873 55.6383831,51.8116663 54.6138556,53.9310781 C53.9945271,55.2120904 53.6057996,55.7391785 53.2803698,55.7391785 C53.2151897,55.7391785 53.1090662,55.7554147 53.0443567,55.7754158 C52.9794119,55.7949463 52.8008138,55.7749452 52.6471582,55.7302368 Z" id="Combined-Shape" fill="#FFFFFF"></path>
                </g>
            </g>
        </g>
    </g>
</svg>

<svg width="96" height="96" viewBox="0 0 96 96" xmlns="http://www.w3.org/2000/svg"><title>art_phone_contactless__m__white</title><g fill="none" fill-rule="evenodd"><path d="M0 0h96v96H0z"/><path fill="#FFF" opacity=".2" d="M21 18h54v52H21z"/><path fill="#FFF" opacity=".3" d="M40 78h16v4H40z"/><path d="M69 91H27c-3.4 0-6-2.6-6-6V11c0-3.2 2.6-6 6-6h42c3.4 0 6 2.6 6 6v74.2c0 3.2-2.6 5.8-6 5.8z"/><path d="M21 85.2c0 3.248 2.752 6 6 6h42c3.248 0 6-2.752 6-6V11c0-3.248-2.752-6-6-6H27c-3.248 0-6 2.752-6 6v74.2zM20 11c0-3.8 3.2-7 7-7h42c3.8 0 7 3.2 7 7v74.2c0 3.8-3.2 7-7 7H27c-3.8 0-7-3.2-7-7V11z" fill="#FFF" fill-rule="nonzero"/><path d="M40.044 49.213c-.266-.11-.568-.47-.658-.784-.1-.35-.018-.628.38-1.283.511-.841.63-1.293.63-2.393 0-1.1-.119-1.552-.63-2.393-.174-.286-.348-.627-.388-.76-.165-.555.298-1.235.919-1.351.526-.099.887.136 1.371.891 1.401 2.187 1.401 5.109 0 7.277-.495.765-1.046 1.035-1.624.796zm4.05 2.081a1.312 1.312 0 0 1-.7-.861c-.048-.218.035-.458.431-1.262 1.459-2.954 1.474-5.798.048-8.683-.626-1.267-.64-1.519-.11-2.019.262-.246.373-.29.74-.29.615 0 .935.31 1.485 1.44.846 1.738 1.193 3.246 1.19 5.178-.003 1.986-.327 3.35-1.231 5.183-.518 1.049-.774 1.326-1.292 1.397a1.214 1.214 0 0 1-.56-.083zm4.343 2.234c-.542-.158-.932-.822-.776-1.32.038-.12.293-.676.567-1.234 1.158-2.363 1.64-4.896 1.404-7.382-.194-2.044-.56-3.332-1.483-5.218-.619-1.265-.647-1.46-.288-1.97.343-.485 1.197-.563 1.645-.151.311.285 1.278 2.305 1.652 3.448 1.235 3.785 1.047 7.849-.537 11.567-.81 1.905-1.38 2.494-2.184 2.26zm4.21 2.202c-.353-.102-.71-.522-.786-.923-.05-.261.01-.443.385-1.167 1.513-2.926 2.17-5.618 2.17-8.887 0-3.159-.582-5.616-2.028-8.562-.31-.632-.564-1.22-.564-1.304 0-.314.262-.768.546-.946.39-.245 1.042-.199 1.354.094.12.113.432.625.694 1.138a21.623 21.623 0 0 1 2.093 6.58c.217 1.436.26 4.157.087 5.47-.32 2.425-.96 4.589-1.984 6.708-.62 1.281-1.008 1.808-1.334 1.808a.962.962 0 0 0-.236.036c-.065.02-.243 0-.397-.045z" fill="#FFF"/></g></svg>
